source/images/icons/search.svg

<svg width="30" height="30" viewBox="0 0 30 30" fill="none" xmlns="http://www.w3.org/2000/svg">
<path d="M30 27L27 30L18 21V18H21L30 27Z" fill="white"/>
<path d="M10.5 21C4.65 21 0 16.35 0 10.5C0 4.65 4.65 0 10.5 0C16.35 0 21 4.65 21 10.5C21 16.35 16.35 21 10.5 21ZM10.5 3C6.3 3 3 6.3 3 10.5C3 14.7 6.3 18 10.5 18C14.7 18 18 14.7 18 10.5C18 6.3 14.7 3 10.5 3Z" fill="white"/>
<path d="M15.9357 17.1019L16.9965 16.0414L20.7083 19.7542L19.6475 20.8147L15.9357 17.1019Z" fill="white"/>
</svg>

<svg viewBox="0 0 30 30" fill="none" xmlns="http://www.w3.org/2000/svg"><path d="m30 27-3 3-9-9v-3h3l9 9Z" fill="#fff"/><path d="M10.5 21c-5.85 0-10.5-4.65-10.5-10.5s4.65-10.5 10.5-10.5 10.5 4.65 10.5 10.5-4.65 10.5-10.5 10.5Zm0-18c-4.2 0-7.5 3.3-7.5 7.5s3.3 7.5 7.5 7.5 7.5-3.3 7.5-7.5-3.3-7.5-7.5-7.5Z" fill="#fff"/><path d="m15.94 17.1 1.06-1.06 3.7 3.71-1.05 1.06-3.71-3.7Z" fill="#fff"/></svg>
